**kern
*MM76
*k[]
*M2/2
=1
1r
=2
1r
=3
[4C
16C]
16BB
16C
16D
8E
8C
8AA
8F#
=4
8G
8D
8E
8BB
8C
16D
16E
[4F
=5
8F]
16E
16D
8E
8C
16F
16D
16E
16F
[4G
=6
16G]
16G
16F#
16E
4F#
4.G
8c
=7
4.F
8D
4.E
8A
=8
4D
4G
4C
4r
=9
1r
=10
1r
=11
1r
=12
1r
=13
2r
[4GG
16GG]
16EE
16FF
16GG
=14
8AA
8FF
8DD
8BB
8C
8BB
8AA
8GG
=15
4FF
4GG
4C
4r
=16
1r
=17
1r
=18
1r
=19
[4C
16C]
16BB
16C
16D
8E
8C
8AA
8F#
=20
8G
8D
8E
8C#
16D#
16BB
16E
16F#
8G
8E
=21
[4A
16A]
16c
16B
16A
16G#
16E
16A
16B
8c
8A
=22
16d
16g
16f
16e
16d
16f
16e
16d
[4c
16c]
16c
16B
16A
=23
16B
16d
16e
16f
8g
8B-
[4A
16A]
16A
16G
16F
=24
16G
16B
16c
16d
8e
8G
[4F
16F]
16F
16E
16D
=25
16E
16G
16A
16B
8c
8E
2D
=26
[2C
8C]
8BB
4AA
=27
4GG
4r
2r
=28
1r
=29
1r
=30
[4G
16G]
16A
16G
16F
8E
8G
8B
8D
=31
8C
8D
8E
8C
[4F
16F]
16G
16F
16E
=32
8D
8E
8F#
8D
[4G
16G]
16A
16G
16F#
=33
8E
8F#
8G#
8E
[4A
16A]
16B-
16A
16G
=34
2F
4E
4r
=35
1r
=36
1r
=37
2r
[4D
16D]
16C#
16D
16E
=38
8F
8D
8BB
8G#
4A
4B
=39
4c
4c#
16r
16d
16c
16B-
16A
16B-
16A
16G
=40
16F#
16D
16G
16A
16B-
16G
16A
16B-
16c
16A
16B-
16c
8d
8D
=41
16G
16AA
16BB
16C
16D
16BB
16C
16D
16E-
16F
16E-
16D
16C
16D
16E-
16F
=42
16G
16F
16G
16A-
[4B-
16B-]
16c
16B-
16A-
16G
16A-
16G
16F
=43
16E
16C
16F
16G
16A-
16F
16G
16A-
16B-
16G
16A-
16B-
16c
16d-
16c
16B-
=44
8A-
8G
8A-
8E-
16F
16D
16E-
16F
16G
16F
16E-
16D
=45
16C
16D
16E-
16F
2G
[4F
=46
16F]
16A-
16G
16F
16E-
16D
16C
16BB-
8AA-
8GG
4AA-
=47
4GG
4r
4G
4r
=48
16r
16d
[8e-
4e-]
[4G
16G]
16E
16F
16G
=49
8A
8F
8D
8B
16c
16B
16c
16d
8e
16d
16c
=50
16B
16A
16G
16F
8E
8r
16r
16d
16c
16B
16A
16c
16B
16A
=51
1r
=52
2r
16r
16G
16F
16E-
16D
16F
16E
16D
=53
16C
16E-
16F
16G
16A-
16G
16A
16B
4c
4r
=54
16r
16e
16d
16c
8B
8e
4c
4r
=55
16r
16c
16B-
16A
8G
8c
4A
4r
=56
16r
16A
16G
16F
8E
8A
[4F
16F]
16E
16F
16G
=57
8A
8F#
8D
8A#
16B
16A
16G
16F#
[4E
=58
4.E]
8c
4F
4r
=59
8r
4G
8A
4B
4c
=60
8d
8r
4r
8c
8r
4r
=61
8r
[8d
16d]
16B
16c
16d
8G
4c
[8d
=62
8d]
8c
4r
4G
8r
8G
=63
4F#
8r
8F#
4G
4r
=64
4A
4r
4F
4r
=65
4E-
4r
4D
8r
8d
=66
8G
8A
8E
[8G
8G]
[8c
16c]
16d
16c
16B-
=67
8A
8c
8e
8G
4F
8r
8E
=68
16F
16E
16F
16G
4A-
4G
4r
=69
16r
16f
16e
16d
[2c
16c]
16e
16d
16c
=70
4B
[4B-
16B-]
16d
16c
16B-
16A
16G
16F
16E
=71
16F
16D
16E
16F
16G
16E
16F
16G
8A
8F
8D
8B
=72
8c
8r
4r
2r
==
*-
